X: 10773
M: 6/8
L: 1/8
K: D
(c/d/) |\
eee eee | e>(f^g/a/) e2e | e>(f^g/a/) efd | cdB c2d |\
e>(f^g/a/) e2e | e>(f^g/a/) e2e | e>(f^g/a/) efd | cdB "^D.C."A2 |]


